img/icon/i-task.svg

<svg width="24" height="26" viewBox="0 0 24 26" fill="none" xmlns="http://www.w3.org/2000/svg">
<path d="M6.82353 22.7297H1.64706M6.82353 16.2432H1.64706M17.1765 3.27027H22.3529M8.63918 5.44195L5.96553 8.12216L4.36082 6.51351M17.1765 9.75676H22.3529M18.8368 18.1464L16.1632 20.8266M18.8368 20.8266L16.1632 18.1464M6.5 1C9.53729 1 12 3.46876 12 6.51351C12 9.55827 9.53729 12.027 6.5 12.027C3.46271 12.027 1 9.55827 1 6.51351C1 3.46876 3.46271 1 6.5 1ZM17.5 13.973C20.5373 13.973 23 16.4417 23 19.4865C23 22.5312 20.5373 25 17.5 25C14.4627 25 12 22.5312 12 19.4865C12 16.4417 14.4627 13.973 17.5 13.973Z" stroke="#848E9F" stroke-width="1.5" stroke-linecap="round" stroke-linejoin="round"/>
</svg>

<svg width="24" height="26" fill="none" xmlns="http://www.w3.org/2000/svg"><path d="M6.824 22.73H1.647m5.177-6.487H1.647M17.177 3.27h5.176M8.639 5.442l-2.673 2.68L4.36 6.514m12.816 3.243h5.176m-3.516 8.39l-2.674 2.68m2.674 0l-2.674-2.68M6.5 1C9.537 1 12 3.469 12 6.514c0 3.044-2.463 5.513-5.5 5.513S1 9.558 1 6.514C1 3.469 3.463 1 6.5 1zm11 12.973c3.037 0 5.5 2.469 5.5 5.513C23 22.532 20.537 25 17.5 25S12 22.531 12 19.486c0-3.044 2.463-5.513 5.5-5.513z" stroke="#848E9F" stroke-width="1.5" stroke-linecap="round" stroke-linejoin="round"/></svg>
